X:1
T:Coro di Mattadori
T:(La traviata)
T:Giuseppe Verdi
%%score [ ( 1 2 3 ) ( 4 5 ) ( 6 7 ) ] { 8 | 9 }
L:1/8
Q:1/4=120
M:4/4
K:C
V:1 treble nm="Soprano\nAlto" snm="S.\nA."
V:2 treble 
V:3 treble 
V:4 bass nm="Tenor" snm="T."
V:5 bass 
V:6 bass nm="Bass" snm="B"
V:7 bass 
V:8 treble nm="Piano" snm="Pia."
V:9 bass 
V:1
"^Allegro assai mosso." z8 | z8 | z8 | z8 | z8 | z8 | z8 | z8 | z8 | z8 | z8 | z8 | z8 | z8 | z8 | %15
w: |||||||||||||||
 z8 | z4!f! ^F2 G2 | A2 B>B c2 ^c>c | d2 D z ^F2 G2 | (A2 _B2) c2 ^c2 | d2 D2 z4 | z8 | z8 | z8 || %24
w: |Si, Si,|bra- vi; nar- ra- te, nar-|ra- te: con pia-|ce- * re l'u-|dre- mo...||||
[K:Bb][M:3/8][Q:1/4=120]"^Allegro assai vivo." z3 | z3 | z3 | z3 | z3 | z3 | z3 | z3 | z3 | z3 | %34
w: ||||||||||
 z3 | z3 | z3 | z3 | z3 | z3 | z3 | z3 | z3 | z3 | z3 | z3 | z3 | z3 | z3 | z3 | z3 | z3 | z3 | %53
w: |||||||||||||||||||
 z3 | z3 | z3 | z3 | z3 | z3 | z3 | z3 | z3 | z3 | z3 | z3 | z3 | z3 | z3 | z3 | z3 | z3 | z3 | %72
w: |||||||||||||||||||
 z3 | z3 | z3 | z3 | z3 | z3 | z3 | z3 | z3 | z3 | z3 | z3 | z3 | z3 | z3 | z3 | z3 | z3 | z3 | %91
w: |||||||||||||||||||
 z3 | z3 | z3 | z3 | z3 | z3 | z3 | z3 | z3 | z3 | z3 |!pp! .=B z z | .=B z z | .=e.d .c | %105
w: |||||||||||Bra-|vo,|Bra- * vo~il|
 .=B.A .G | .A z .A | .A z .A | .d.c .=B | .A.G .^F | .=B z z | .=B z .B | .=e.d .c | .=B.A.G | %114
w: mat- * ta-|do,- re,|ben ga|gliar- * do|si _ mos-|trò,|se~al- la|gio- * va-|ne _ l'a-|
 .A z .A | .A z .A | .d.c .=B | .A.G.^F | G2 z | z3 | z3 | z3 | z3 | z3 | z3 | z3 | z3 | z3 | z3 | %129
w: mo- re|in tal|gui- * sa|e- gli pro-|vo!|||||||||||
 z3 | z3 | z3 | z3 | z3 | z3 | (!>!d/=e/ .d).=B | (!>!d/=e/ .d).=B | (!>!c/d/ .c).A | F F2 | %139
w: ||||||Con _ _ tai|pro- * * ve~i|mat- * * ta-|do- ri|
 (!>!d/=e/ .d).=B | (!>!d/=e/ .d).=B | (!>!c/d/ .c).A | F2 z | z3 | z3 | z3 | z3 | z3 | z3 | z3 || %150
w: san _ _ le|bel- * * le|con- * * qui-|star!-||||||||
[K:G] z3 | z3 |!ppp! .B z z | .B z z | .e.d .c | .B.A .G | .A z .A | .A z .A | .d.c .B | .A.G .F | %160
w: ||Si,|al-|le- * gri,~or|pria _ ten-|tia- mo|del- la|sor- * te~il|va- * rio~u-|
 .B z z |!<(! .B z .B!<)! | .e.d .c | .B.A .G | .A z .A | .A z .A | .d.c .B | .A.G .F | %168
w: mor;|la pa-|le- * stra|di- * schiu-|dia- mo|a- gli~au-|da- * ci|giuo- * ca-|
!<(! B z z!<)! | .B z .B | .e.d .c | .B.A .G | .A z .A | .A z .A | .d.c .B | .A.G .F | G2 z | %177
w: tor,|la pa-|le- * stra|di- * schiu-|dia- mo|a- gli~au-|da- * ci|giuo- * ca-|tor.|
!ff! !>!dB G | !>!cA F | !>!cA F | BG z | !>!dB G | !>!cA F | !>!cA F | G2 z | !>!dB G | !>!cA F | %187
w: Si, _ al-|le- _ gri,~or|pria _ ten|tia- mo|del- * la|sor- * te~il|va- * rio~u-|mor;|la _ pa-|le- * stra|
 !>!cA F | BG z | !>!dB G | cB F | cB F |"^unis." B !>!d2 | B !>!d2 | B !>!d2 | B !>!d2 | B3- | %197
w: di- * schiu-|dia- mo|a- * gli~au-|da- * ci|giuo- * ca|tor, si,|di- schiu-|dia- mo~ai|giu- ca-|tor.|
 B3- | B3- | B3- | B2 !fermata!z |] %201
w: _||||
V:2
 x8 | x8 | x8 | x8 | x8 | x8 | x8 | x8 | x8 | x8 | x8 | x8 | x8 | x8 | x8 | x8 | x4 A2 _B2 | %17
 c2 d>d _e2 =e>e | d2 D x A2 _B2 | (c2 d2) _e2 =e2 | d2 D2 x4 | x8 | x8 | x8 ||[K:Bb][M:3/8] x3 | %25
 x3 | x3 | x3 | x3 | x3 | x3 | x3 | x3 | x3 | x3 | x3 | x3 | x3 | x3 | x3 | x3 | x3 | x3 | x3 | %44
 x3 | x3 | x3 | x3 | x3 | x3 | x3 | x3 | x3 | x3 | x3 | x3 | x3 | x3 | x3 | x3 | x3 | x3 | x3 | %63
 x3 | x3 | x3 | x3 | x3 | x3 | x3 | x3 | x3 | x3 | x3 | x3 | x3 | x3 | x3 | x3 | x3 | x3 | x3 | %82
 x3 | x3 | x3 | x3 | x3 | x3 | x3 | x3 | x3 | x3 | x3 | x3 | x3 | x3 | x3 | x3 | x3 | x3 | x3 | %101
 x3 | .d x x | .d x x | .g.^f .=e | .d.c .=B | .c x .c | .c x .c | .^f.=e .d | .c.=B .A | .d x2 | %111
 .d x .d | .g.^f .=e | .d.c.=B | .c x .c | .c x .c | .^f.=e .d | .c.=B.A | G2 x | x3 | x3 | x3 | %122
 x3 | x3 | x3 | x3 | x3 | x3 | x3 | x3 | x3 | x3 | x3 | x3 | x3 | (!>!=f/g/ .f).d | %136
 (!>!=f/g/ .f).d | (!>!=e/f/ .e).c | A F2 | (!>!=f/g/ .f).d | (!>!=f/g/ .f).d | (!>!=e/f/ .e).c | %142
 A2 x | x3 | x3 | x3 | x3 | x3 | x3 | x3 ||[K:G] x3 | x3 | .d x x | .d x x | .g.f .e | .d.c .B | %156
 .c x .c | .c x .c | .f.e .d | .c.B .A | .d x2 | .d x .d | .g.f .e | .d.c .B | .c x .c | .c x .c | %166
 .f.e .d | .c.B .A | d x2 | .d x .d | .g.f .e | .d.c .B | .c x .c | .c x .c | .f.e .d | .c.B .A | %176
 G2 z | !>!gd B | !>!ec A | !>!ec A | dB x | !>!gd B | !>!ec A | !>!ec A | G2 x | !>!gd B | %186
 !>!ec A | !>!ec A | dB x | !>!gd B | ed A | ed .A | B d2 | B !>!d2 | B !>!d2 | B !>!d2 | d3- | %197
 d3- | d3- | d3- | d2 x |] %201
V:3
 x8 | x8 | x8 | x8 | x8 | x8 | x8 | x8 | x8 | x8 | x8 | x8 | x8 | x8 | x8 | x8 | x8 | x8 | x8 | %19
 x8 | x8 | x8 | x8 | x8 ||[K:Bb][M:3/8] x3 | x3 | x3 | x3 | x3 | x3 | x3 | x3 | x3 | x3 | x3 | x3 | %36
 x3 | x3 | x3 | x3 | x3 | x3 | x3 | x3 | x3 | x3 | x3 | x3 | x3 | x3 | x3 | x3 | x3 | x3 | x3 | %55
 x3 | x3 | x3 | x3 | x3 | x3 | x3 | x3 | x3 | x3 | x3 | x3 | x3 | x3 | x3 | x3 | x3 | x3 | x3 | %74
 x3 | x3 | x3 | x3 | x3 | x3 | x3 | x3 | x3 | x3 | x3 | x3 | x3 | x3 | x3 | x3 | x3 | x3 | x3 | %93
 x3 | x3 | x3 | x3 | x3 | x3 | x3 | x3 | x3 | x3 | x3 | x3 | x3 | x3 | x3 | x3 | x3 | x3 | x3 | %112
 x3 | x3 | x3 | x3 | x3 | x3 | x3 | x3 | x3 | x3 | x3 | x3 | x3 | x3 | x3 | x3 | x3 | x3 | x3 | %131
 x3 | x3 | x3 | x3 | x3 | x3 | x3 | x3 | x3 | x3 | x3 | x3 | x3 | x3 | x3 | x3 | x3 | x3 | x3 || %150
[K:G] x3 | x3 | x3 | x3 | x3 | x3 | x3 | x3 | x3 | x3 | x3 | x3 | x3 | x3 | x3 | x3 | x3 | x3 | %168
 x3 | x3 | x3 | x3 | x3 | x3 | x3 | x3 | x3 | x3 | x3 | x3 | x3 | x3 | x3 | x3 | x3 | x3 | x3 | %187
 x3 | x3 | x3 | x3 | x3 | x3 | x3 | x3 | x3 | g3- | g3- | g3- | g3- | g2 x |] %201
V:4
 z8 | z8 | z8 | z8 | z4!f! !>!C2 !>!C2 | (3(.C.B,.A,) G, z/ ^G,/ (3(.A,.=G,.F,) E, z/ F,/ | %6
w: ||||Di Ma-|dri- * * de noi siam _ _ mat- ta-|
 (G,2 E,) z !>!C2 !>!C2 | (3(.C.B,.A,) G, z/ ^G,/ (3(.A,.=G,.F,) E, z/ F,/ | %8
w: do- ri, sia- mo~i|pro- * * di del cir- * * co dei|
 (G,2 E,) z !>!C2 !>!_E2 | (3(.D.C._B,) A, z/ C/ (3(.B,.A,.G,) ^F, z/ G,/ | %10
w: to- ri; te- stè|giun- * * ti~a go- de- * * re del|
 (A,2 D,) z !>!C2 !>!_E2 | (3(.D.C._B,) A, z/ C/ (3(.B,.A,.G,) ^F, z/ G,/ | %12
w: chias- so che~a Pa-|ri- * * gi si fa _ _ pel Bue|
 (A,2 D,) z !>!D2 !>!D2 | D,2 D,>D, D2 D>D | D,2 D,2 !>!D2 !>!D2 | D,2 D,>D, !>!D2 D>D | %16
w: gras- so; é~u- na|sto- ria, se~u- di- re vor-|re- te, qual- li~a-|man- ti noi sia- mo, sa-|
 D,2 D,2 z4 | z8 | z8 | z8 | z8 | z4 z2 D>D | (D8 | D,4) z4 ||[K:Bb][M:3/8][K:treble-8] z3 | z3 | %26
w: pre- te.|||||A scol-|ta-|te|||
 z3 |!p! (G/A/B) c | (d2 !>!e) | (!>!e/d/d) (g | d2 G) | (A/d/d) A | (B2 G) | (A/d/d) ^F | G2 z | %35
w: |È _ _ Pi-|quil- lo~un|bel _ _ ga-|gliar- do|bi- * * sca-|gli- no|mat- * * ta-|dor;|
 (G/A/B) c | (d2 !>!e) | (!>!e/d/d) g | (d2 G) | (A/d/d) A | (B2 G) | (A/d/d) ^F | G z z | %43
w: for- * * te~il|brac- cio,|fie- * * ro~il|guar- do,|del- * * le|gio- stre~e-|gli~è _ _ si-|gnor.|
 (!>!=f/g/.f) .d | (!>!f/g/.f) .d | (!>!e/f/.e) .c | A !>!F2 | (!>!f/g/.f) .d | (!>!f/g/.f) .d | %49
w: D'an- * * da-|lu- * * sa|gio- * * vi-|net- ta|fol- * * le-|men- * * te|
 (!>!e/f/).e .c | A2 z | (G/A/B) c | (d2 !>!e) | (!>!e/d/d) g | (d2 G) | (A/d/d) A | (B2 G) | %57
w: in- * na- mo-|rò;|ma _ _ la|bel- la|ri- * * tro-|set- ta|co- * * sì~al|gio- va|
 (A/d/d) ^F | G2 z | z3 |!ppp! .e z z | .e z z | (.g.^f) .=e | (.d.c) .=B | .c z .c | .c z .c | %66
w: ne _ _ par-|lò:||Cin-|que|to- * ri~in|un _ sol|gior- no|vo' ve-|
 (.^f.=e) .d | (.c.=B) .A | .d z z | .d z .d | (.g.^f) .=e | (.d.c) .=B | .c z .c | .c z .c | %74
w: der- * ti~ad|at- * ter-|rar;|e, se|vin- * ci,~al|tuo _ ri-|tor- no|ma- no~e|
 (.^f.=e) .d | (.c.=B) .A | G2 z |!p! (G/A/_B) c | (d2 !>!e) | (!>!e/d/d) g | (d2 G) | (A/d/d) A | %82
w: cor _ ti|vo' _ do-|nar.|Si, _ _ gli|dis- se,~e~il|mat- * * ta-|do- re|al- * * le|
 (B2 G) | (A/d/d) ^F | G2 z | !>!dB G | !>!cA ^F | !>!cA ^F | !>!BG z | !>!dB G | !>!cA ^F | %91
w: gio- stre|mos- * * se~il|piè;|cin- * que|to- * ri|vin- * ci-|to- re|sul- * l'a-|re- * na|
 !>!cA ^F | G z z | !>!dB G | !>!cA ^F | !>!cA ^F | !>!BG z | !>!dB G | !>!cA ^F | !>!cA ^F | %100
w: e gli sten-|dè,|cin- * que|tor- * ri|vin- * ci-|to- re|sul- * l'a-|re- * na|e- gli sten|
 G2 z | z3 | z3 | z3 | z3 | z3 | z3 | z3 | z3 | z3 | z3 | z3 | z3 | z3 | z3 | z3 | z3 | z3 | z3 | %119
w: dè.|||||||||||||||||||
 (G/A/_B) c | (d2 !>!e) | (!>!e/d/d) g | (d2 G) | (A/d/d) A | (B2 G) | (A/d/d) ^F | G2 z | %127
w: Poi, _ _ tra|plau- si,|ri- * * tor-|na- to|al- * * la|bel- la|del- _ _ suo|cor,|
 (G/A/B) c | (d2 !>!e) | (!>!e/d/d) g | (d2 G) | (A/d/d) A | (B2 G) | (A/d/d) ^F | G2 z | z3 | z3 | %137
w: col- * * se~il|pre- mio|de- * * si-|a- to|tra- _ _ le|brac- cia|del- * * l'a-|mor.|||
 z3 | z3 | z3 | z3 | z3 | z3 | (G/A/B) c | (d2 !>!e) | (!>!e/d/d) g | (d2 G) | (A/d/d) A | (B2 G) | %149
w: ||||||Ma _ _ qui|son più|mi- * * ti~i|co- ri|a _ _ noi|bas- ta|
 (A/d/d) F ||[K:G] G2 z | z3 |!ppp! .B z z | .B z z | .e.d .c | .B.A G | .A z .A | .A z .A | %158
w: fol- * * leg-|giar.||Si,|al-|le- * gri,~or|pria _ ten-|tia- mo|del- la|
 .d.c .B | .A.G .F | .B z z |!<(! .B z .B!<)! | .e.d .c | .B.A G | .A z .A | .A z .A | .d.c .B | %167
w: sor- * te~il|va- * rio~u-|mor;|la pa-|le- * stra|di- * schiu-|dia- mo|a- gli~au-|da- * ci|
 .A.G .F |!<(! B z z!<)! | .B z .B | .e.d .c | .B.A G | .A z .A | .A z .A | .d.c .B | .A.G .F | %176
w: giuo- * ca-|tor,|la pa-|le- * stra|di- * schiu-|dia- mo|a- gli~au-|da- * ci|giuo- * ca|
 G2 z |!ff! !>!dB G | !>!cA F | !>!cA F | BG z | !>!dB G | !>!cA F | !>!cA F | G2 z | !>!dB G | %186
w: tor.|Si, _ al-|le- _ gri,~or|pria _ ten|tia- mo|del- * la|sor- * te~il|va- * rio~u-|mor;|la _ pa-|
 !>!cA F | !>!cA F | BG z | !>!dB G | cB F | cB F |"^unis." B !>!d2 | B !>!d2 | B !>!d2 | B !>!d2 | %196
w: le- * stra|di- * schiu-|dia- mo|a- * gli~au-|da- * ci|giuo- * ca|tor, si,|di- schiu-|dia- mo~ai|giu- ca-|
 d3- | d3- | d3- | d3- | d2 !fermata!z |] %201
w: tor.|_||||
V:5
 x8 | x8 | x8 | x8 | x8 | x8 | x8 | x8 | x8 | x8 | x8 | x8 | x8 | x8 | x8 | x8 | x4 x4 | x8 | x8 | %19
 x8 | x8 | x8 | x8 | x8 ||[K:Bb][M:3/8][K:treble-8] x3 | x3 | x3 | x3 | x3 | x3 | x3 | x3 | x3 | %33
 x3 | x3 | x3 | x3 | x3 | x3 | x3 | x3 | x3 | x3 | x3 | x3 | x3 | x3 | x3 | x3 | x3 | x3 | x3 | %52
 x3 | x3 | x3 | x3 | x3 | x3 | x3 | x3 | x3 | x3 | x3 | x3 | x3 | x3 | x3 | x3 | x3 | x3 | x3 | %71
 x3 | x3 | x3 | x3 | x3 | x3 | x3 | x3 | x3 | x3 | x3 | x3 | x3 | x3 | (!>!gd) B | (!>!ec) A | %87
 (!>!ec) A | !>!dB x | (!>!gd) B | (!>!ec) A | !>!ec A | G x2 | (!>!gd) B | (!>!ec) A | (!>!ec) A | %96
 !>!dB x | (!>!gd) B | (!>!ec) A | !>!ec A | G2 x | x3 | x3 | x3 | x3 | x3 | x3 | x3 | x3 | x3 | %110
 x3 | x3 | x3 | x3 | x3 | x3 | x3 | x3 | x3 | x3 | x3 | x3 | x3 | x3 | x3 | x3 | x3 | x3 | x3 | %129
 x3 | x3 | x3 | x3 | x3 | x3 | x3 | x3 | x3 | x3 | x3 | x3 | x3 | x3 | x3 | x3 | x3 | x3 | x3 | %148
 x3 | x3 ||[K:G] x3 | x3 | .d x x | .d x x | .g.f .e | .d.c B | .c x .c | .c x .c | .f.e .d | %159
 .c.B .A | .d x2 | .d x .d | .g.f .e | .d.c B | .c x .c | .c x .c | .f.e .d | .c.B .A | d x2 | %169
 .d x .d | .g.f .e | .d.c B | .c x .c | .c x .c | .f.e .d | .c.B .A | G2 z | !>!gd B | !>!ec A | %179
 !>!ec A | dB x | !>!gd B | !>!ec A | !>!ec A | G2 x | !>!gd B | !>!ec A | !>!ec A | dB x | %189
 !>!gd B | ed A | ed .A | B d2 | B !>!d2 | B !>!d2 | B !>!d2 | g3- | g3- | g3- | g3- | g2 x |] %201
V:6
 z8 | z8 | z8 | z8 |"^unis." z4!f! !>!C2 !>!C2 | (3(.C.B,.A,) G, z/ ^G,/ (3(.A,.=G,.F,) E, z/ F,/ | %6
w: ||||Di Ma-|dri- * * de noi siam _ _ mat- ta-|
 (G,2 E,) z !>!C2 !>!C2 | (3(.C.B,.A,) G, z/ ^G,/ (3(.A,.=G,.F,) E, z/ F,/ | %8
w: do- ri, sia- mo~i|pro- * * di del cir- * * co dei|
 (G,2 E,) z !>!C2 !>!_E2 | (3(.D.C._B,) A, z/ C/ (3(.B,.A,.G,) ^F, z/ G,/ | %10
w: to- ri; te- stè|giun- * * ti~a go- de- * * re del|
 (A,2 D,) z !>!C2 !>!_E2 | (3(.D.C._B,) A, z/ C/ (3(.B,.A,.G,) ^F, z/ G,/ | %12
w: chias- so che~a Pa-|ri- * * gi si fa _ _ pel Bue|
 (A,2 D,) z !>!D2 !>!D2 | D,2 D,>D, D2 D>D | D,2 D,2 !>!D2 !>!D2 | D,2 D,>D, !>!D2 D>D | %16
w: gras- so; é~u- na|sto- ria, se~u- di- re vor-|re- te, qual- li~a-|man- ti noi sia- mo, sa-|
 D,2 D,2!f! D,2 D,2 | D,2 D,>D, D,2 D,>D, | D,2 D, z D,2 D,2 | (D,2 D,2) D,2 D,2 | D,2 D,2 z4 | %21
w: pre- te. Si, Si,|bra- vi; nar- ra- te, nar-|ra- te: con pia-|ce- * re l'u-|dre- mo...|
 z4 z2 D>D | (D8 | D,4) z4 ||[K:Bb][M:3/8] z3 | z3 | z3 |!p! G, z G, | G, z G, | G, z G, | %30
w: A scol-|ta-|te||||* Pi-|quil- lo~un|bel ga-|
 G, z G, | D, z D, | G, z G, | D, z D, | G,,2 z | G, z G, | G, z G, | G, z G, | G, z G, | D, z D, | %40
w: gliar- do|bi- sca-|gli- no|mat- ta-|dor;|for- te~il|brac- cio,|fie- ro~il|guar- do,|del- le|
 G, z G, | D, z D, | G,, z z | B,2 B, | B,2 B, | F,2 F, | F, !>!F,2 | B,2 B, | B,2 B, | F,F,F, | %50
w: gio- stre~e-|gli~è si-|gnor.|D'an- da-|lu- sa|gio- vi-|net- ta|fol- le-|ment- te|in- na- mo-|
 F,2 z | G, z G, | G, z G, | G, z G, | G, z G, | D, z D, | G, z G, | D, z D, | G,,2 z | z3 | %60
w: rò;|ma la|bel- la|ri- tro-|set- ta|co- sì~al|gio- va-|ne par-|lò:||
!ppp! G, z z | G, z z | G,2 G, | G,2 G, | D, z D, | D, z D, | D,2 D, | D,2 D, | G, z z | G, z G, | %70
w: Cin-|que|to- ri~in|* sol|gior- no|vo' ve-|der- ti~ad|at- ter-|rar;|e, se|
 (G,G,) G, | G,2 G, | D, z D, | D, z D, | D,2 D, | D,2 D, | G,2 z |!p! G, z G, | G, z G, | %79
w: vin- * ci,~al|tuo ri-|tor- no|ma- no~e|cor ti|vo' do-|nar.|Si, gli|dis- se,~e~il|
 G, z G, | G, z G, | D, z D, | G, z G, | D, z D, | G,2 z | (!>!G,B,) D | (!>!^F,A,) C | %87
w: mat- ta-|do- re|al- le|gio- stre|mos- se~il|piè;|cin- * que|to- * ri,|
 (!>!^F,A,) C | !>!G,B, z | (!>!G,B,) D | (!>!^F,A,) C | !>!^F,A,C | B, z z | (!>!G,B,) D | %94
w: vin- * ci-|to- re,|sul- * l'a-|re- * na|e gli sten-|dè,|cin- * que|
 (!>!^F,A,) C | (!>!^F,A,) C | !>!G,B, z | (!>!G,B,) D | (!>!^F,A,) C | !>!^F,A,C | G,2 z | z3 | %102
w: tor- * ri,|vin- * ci-|to- re,|sul- * l'a-|re- * na|e- gli sten-|dè.||
!pp! .G, z z | .G, z z | G,2 G, | G,2 G, | .D, z .D, | .D, z .D, | D,2 D, | D,2 D, | .G, z z | %111
w: Bra-|vo,|Bra- vo~il|mat- ta-|do- re,|ben ga-|gliar- do|* mo-|strò,|
 .G, z .G, | G,2 G, | (G,G,) G, | .D, z .D, | .D, z .D, | .D,2 .D, | .D,.D,.D, | G,,2 z | G, z G, | %120
w: se~al- la|gio- va-|ne _ l'a-|mo- re|in tal|gui- sa|e- gli pro-|vò!|Poi, tra|
 G, z G, | G, z G, | G, z G, | D, z D, | G, z G, | D, z D, | G,2 z | G, z G, | G, z G, | G, z G, | %130
w: plau- si,|ri- tor-|na- to|al- la|bel- la|del suo|cor,|col- se~il|pre- mio|de- si-|
 G, z G, | D, z D, | G, z G, | D, z D, | G,2 z | B,2 B, | B,2 B, | F,2 F, | F, !>!F,2 | B,2 B, | %140
w: a- to|tra le|brac- cia|del- l'a-|mor.|* tai|pro- ve~i|mat- ta-|do- ri|* le|
 B,2 B, | F,2 F, | F,2 z | G, z G, | G, z G, | G, z G, | G, z G, | D, z D, | G, z G, | D, z D, || %150
w: bel- le|con- qui-|star!|Ma qui|son più|mi- ti~i|co- ri;|a noi|ba- sta|fol- leg-|
[K:G] G,2 z | z3 |!ppp! G, z z | G, z z | G,2 G, | G,2 G, | .D, z .D, | .D, z .D, | D,2 D, | %159
w: giar.||Si,|al-|le- gri,~or|pria ten-|tia- mo|del- la|sor- te~il|
 D,2 D, | .G, z z |!<(! .G, z .G,!<)! | G,2 G, | G,2 G, | .D, z .D, | .D, z .D, | D,2 D, | D,2 D, | %168
w: va- rio~u-|mor;|la pa-|le- stra|di- schiu-|dia- mo|a- gli~au-|da- ci|giuo- ca-|
!<(! G, z z!<)! | .G, z .G, | G,2 G, | G,2 G, | .D, z .D, | .D, z .D, | D,2 D, | D,2 D, | G,2 z | %177
w: tor,|la pa-|le- stra|di schiu-|dia- mo|a- gli~au-|da- ci|giu- ca-|tor.|
!ff! !>!G,B, D | !>!F,A, C | !>!F,A, C | F,A, z | !>!G,B, D | !>!F,A, C | !>!F,A, C | G,2 z | %185
w: Si, _ al-|le- * gri,~or|pria _ ten|tia- mo|del- * la|sor- * te~il|va- * rio~u-|mor;|
 !>!G,B, D | !>!F,A, C | !>!F,A, C | F,A, z | !>!G,B, D | !>!F,A, C | !>!F,A, C | B, !>!D2 | %193
w: la _ pa-|le- * stra|di- * schiu-|dia- mo|a- * gli~au-|da- * ci|giuo- * ca-|tor, si,|
 B, !>!D2 | B, !>!D2 | B, !>!D2 | G,3- | G,3- | G,3- | G,3- | G,2 !fermata!z |] %201
w: di- schiu-|dia- mo~ai|giu- ca-|tor.|_||||
V:7
 x8 | x8 | x8 | x8 | x8 | x8 | x8 | x8 | x8 | x8 | x8 | x8 | x8 | x8 | x8 | x8 | x4 ^F,2 G,2 | %17
w: |||||||||||||||||
 A,2 _B,>B, C2 ^C>C | D2 D, x ^F,2 G,2 | (A,2 _B,2) C2 ^C2 | D2 D,2 x4 | x8 | x8 | x8 || %24
w: |||||||
[K:Bb][M:3/8] x3 | x3 | x3 | B, x B, | B, x B, | B, x B, | B, x G, | ^F, x F, | G, x G, | %33
w: |||È *||||||
 ^F, x F, | G,2 x | B, x B, | B, x B, | B, x B, | B, x G, | ^F, x F, | G, x G, | ^F, x F, | %42
w: |||||||||
 G, x x | (!>!D/E/.D) .B, | (!>!D/E/.D) .B, | (!>!C/D/.C) .A, | F, !>!F,2 | (!>!D/E/.D) .B, | %48
w: ||||||
 (!>!D/E/.D) .B, | (!>!C/D/).C .A, | F,2 x | B, x B, | B, x B, | B, x B, | B, x G, | ^F, x F, | %56
w: ||||||||
 G, x G, | ^F, x F, | G,2 x | x3 | .=B, x2 | .=B, x2 | (.=E.D) .C | (.=B,.A,) .G, | .A, x .A, | %65
w: |||||||un _ _|_|
 .A, x .A, | (.D.C) .=B, | (.A,.G,) .^F, | .=B, x2 | .=B, x .B, | .=E.D .C | (.=B,.A,) .G, | %72
w: |||||||
 .A, x .A, | .A, x .A, | (.D.C) .=B, | (.A,.G,) .^F, | G,2 x | _B, x B, | B, x B, | B, x B, | %80
w: ||||||||
 B, x G, | ^F, x F, | G, x G, | ^F, x F, | G,2 x | x3 | x3 | x3 | x3 | x3 | x3 | x3 | x3 | x3 | %94
w: ||||||||||||||
 x3 | x3 | x3 | x3 | x3 | x3 | x3 | x3 | .=B, x2 | .=B, x2 | .=E.D .C | .=B,.A, .G, | .A, x .A, | %107
w: |||||||||||||
 .A, x .A, | .D.C .=B, | .A,.G, .^F, | .=B, x x | .=B, x .B, | .=E.D .C | .=B,.A, .G, | .A, x .A, | %115
w: ||si _ _|_|||||
 .A, x .A, | .D.C .=B, | .A,.G,.^F, | G,2 x | _B, x B, | B, x B, | B, x B, | B, x G, | ^F, x F, | %124
w: |||||||||
 G, x G, | ^F, x F, | G,2 x | _B, x B, | B, x B, | B, x B, | B, x G, | ^F, x F, | G, x G, | %133
w: |||||||||
 ^F, x F, | G,2 x | (!>!D/E/ .D).B, | (!>!D/E/ .D).B, | (!>!C/D/ .C).A, | F, !>!F,2 | %139
w: ||Con _ _ _|_ _ _ _|||
 (!>!D/E/ .D).B, | (!>!D/E/ .D).B, | (!>!C/D/ .C).A, | F,2 x | B, x B, | B, x B, | B, x B, | %146
w: san _ _ _|_ _ _ _||||||
 B, x G, | ^F, x F, | G, x G, | ^F, x F, ||[K:G] G,2 x | x3 | x3 | x3 | x3 | x3 | x3 | x3 | x3 | %159
w: |||||||||||||
 x3 | x3 | x3 | x3 | x3 | x3 | x3 | x3 | x3 | x3 | x3 | x3 | x3 | x3 | x3 | x3 | x3 | x3 | x3 | %178
w: |||||||||||||||||||
 x3 | x3 | x3 | x3 | x3 | x3 | x3 | x3 | x3 | x3 | x3 | x3 | x3 | x3 | x3 | x3 | x3 | x3 | B,3- | %197
w: |||||||||||||||||||
 B,3- | B,3- | B,3- | B,2 x |] %201
w: ||||
V:8
 z4 !>![cc']2 !>![cc']2 | !>![cc']2 !>![cc']2 !>![cc']2 !>![cc']2 | %2
 (3.[cc']b.a (3.g.a.b (3.c'.b.a (3.g.a.b | (3.c'.b.a (3.g.a.b (3.c'.b.a (3.g.a.b | %4
 c'2 z2 !>![cc']2 !>![cc']2 | (3.[cc'].b.a gz/^g/ (3.a.=g.f ez/f/ | (g2 e) z !>![cc']2 !>![cc']2 | %7
 (3.[cc'].b.a gz/^g/ (3.a.=g.f ez/f/ | (g2 e) z !>![cc']2 !>![_e_e']2 | %9
 (3.[dd'].c'_b az/c'/ (3.b.a.g ^fz/g/ | (a2 d) z !>![cc']2 !>![_e_e']2 | %11
 (3.[dd'].c'._b az/c'/ (3.b.a.g ^fz/g/ | (a2 d) z !>!d2 !>!d2 | D2 D>D !>!d2 d>d | %14
 D2 D2 !>!d2 !>!d2 | D2 D>D [Dd]2 [Dd]>[Dd] | D2!8va(! (3.d'._e'.d' (3.c'.d'.c' (3._b.c'.b!8va)! | %17
 (3.a._ba (3.g.a.g (3.^f.g.a (3.b.a.g | d2!8va(! (3.d'._e'.d' (3.c'.d'.c' (3._b.c'.b!8va)! | %19
 (3.a._b.a (3.g.a.g (3.^f.g.a (3.b.a.g |!ff! d2 (3[dd'][dd'][dd'] [dd']2 [dd']2 | %21
 [dd']2 (3[dd'][dd'][dd'] [dd']2 [dd']2 | [dd']8 | [Dd]4 z4 ||[K:Bb][M:3/8] z3 | z3 | z3 | %27
!8va(! (g/a/).b.c' | d'2 !>!e' |({/f'} Te'/d'/).d'.g' | (d'2 g) | (a/d'/).d'.a | (b2 g) | %33
 (a/d'/).d'.^f | g2 z | (g/a/).b.c' | d'2 !>!e' |({/f'} Te'/d'/).d'.g' | (d'2 g) | (a/d'/).d'.a | %40
 (b2 g) | (a/d'/).d'.^f | g2 z | (!>![d'f']/[e'g']/).[d'f'].[bd'] | %44
 (!>![d'f']/[e'g']/).[d'f'].[bd'] | (!>![c'e']/[d'f']/).[c'e'].[ac']!8va)! | .[fa] [Ff]2 | %47
!8va(! (!>![d'f']/[e'g']/).[d'f'].[bd'] | (!>![d'f']/[e'g']/).[d'f'].[bd'] | %49
 (!>![c'e']/[d'f']/).[c'e'].[ac'] | [fa]2 z | (g/a/).b.c' | d'2 !>!e' |{/f'} (Te'/d'/).d'.g' | %54
 (d'2 g) | (a/d'/).d'.a | (b2 g) | (a/d'/).d'.^f | g2 z!8va)! | z3 | .[=Bd] z z | .[=Bd] z z | %62
 .[=eg].[d^f].[ce] | .[=Bd].[Ac].[GB] | .[Ac]z.[Ac] | .[Ac]z.[Ac] | .[d^f].[c=e].[=Bd] | %67
 .[Ac].[G=B].[^FA] | .[=Bd] z z | .[=Bd]z.[Bd] | .[=eg].[d^f].[ce] | .[=Bd].[Ac].[GB] | %72
 .[Ac]z.[Ac] | .[Ac]z.[Ac] | .[d^f].[c=e].[=Bd] | .[Ac].[G=B].[^FA] | G2 z |!8va(! (g/a/)._b.c' | %78
 d'2 !>!e' |({/f'} Te'/d'/).d'.g' | (d'2 g) | (a/d'/).d'.a | (b2 g) | (a/d'/).d'.^f | %84
 g2({d'=e'^f'} z |!f! .g'/).=f'/._e'/.d'/.c'/._b/ | .e'.d'/.c'/.b/.a/ | !>!e'.d'/.c'/.b/.a/ | %88
 !>!d'/.c'/.b/.a/g | .g'/.f'/.e'/.d'/.c'/.b/ | !>!e'.d'/.c'/.b/.a/ | !>!e'.d'/.c'/.b/.a/ | %92
 g2{d'=e'^f'} z | .g'/.=f'/._e'/.d'/.c'/._b/ | !>!e'.d'/.c'/.b/.a/ | !>!e'.d'/.c'/.b/.a/ | %96
 !>!d'/.c'/.b/.a/g | .g'/.f'/.e'/.d'/.c'/.b/ | !>!e'.d'/.c'/.b/.a/ | !>!e'.d'/.c'/.b/.a/ | %100
 g2!8va)! z | z3 | .[=Bd] z z | .[=Bd] z z | [=eg].[d^f].[ce] | .[=Bd].[Ac].[GB] | .[Ac]z.[Ac] | %107
 .[Ac]z.[Ac] | .[d^f].[c=e].[=Bd] | .[Ac].[G=B].[^FA] | .[=Bd] z z | .[=Bd]z.[Bd] | %112
 [=eg].[d^f].[ce] | .[=Bd].[Ac].[GB] | .[Ac]z.[Ac] | .[Ac]z.[Ac] | .[d^f].[c=e].[=Bd] | %117
 .[Ac].[G=B].[^FA] | G2 z |!8va(! (g/a/).b.c' | d'2 !>!e' |{/g'} (Te'/d'/).d'.g' | (d'2 g) | %123
 (a/d'/).d'.a | (b2 g) | (a/d'/).d'.^f | g2 z | (g/a/).b.c' | (d'2 !>!e') |{/f'} (Te'/d'/).d'.g' | %130
 (d'2 g) | (a/d'/).d'.a | (b2 g) | (a/d'/).d'.^f | g2 z | (!>![d'f']/[e'g']/).[d'f'].[bd'] | %136
 (!>![d'f']/[e'g']/).[d'f'].[bd'] | (!>![c'e']/[d'f']/).[c'e'].[ac']!8va)! | [fa] !>![Ff]2 | %139
!8va(! (!>![d'f']/[e'g']/).[d'f'].[bd'] | (!>![d'f']/[e'g']/).[d'f'].[bd'] | %141
 (!>![c'e']/[d'f']/).[c'e'].[ac'] | [fa]2 z | (g/a/).b.c' | d'2 !>!e' |{/f'} (Te'/d'/).d'.g' | %146
 (d'2 g) | (a/d'/).d'.a | (b2 g) | (a/d'/).d'.^f ||[K:G] g2!8va)! z | z3 | .[Bd] z z | .[Bd] z z | %154
 .[eg].[df].[ce] | .[Bd].[Ac].[GB] | .[Ac]z.[Ac] | .[Ac]z.[Ac] | .[df].[ce].[Bd] | %159
 .[Ac].[GB].[FA] | .[Bd] z z | .[Bd]z.[Bd] | .[eg].[df].[ce] | .[Bd].[Ac].[GB] | .[Ac]z.[Ac] | %165
 .[Ac]z.[Ac] | .[df].[ce].[Bd] | .[Ac].[GB].[FA] | .[dbd'] z z | .[dbd']z.[dbd'] | %170
 .[ge'g'].[fd'f'].[ec'e'] | .[dbd'].[cac'].[Bgb] | .[cac']z.[cac'] | .[cac']z.[cac'] | %174
 .[fd'f'].[ec'e'].[dbd'] | .[cac'].[Bgb].[Afa] | [Gg]2{GABcdef}!8va(! z | .g'/.f'/.e'/.d'/.c'/.b/ | %178
 .e'.d'/.c'/.b/.a/ | .e'.d'/.c'/.b/.a/ | .d'/.c'/.b/.a/.g | .g'/.f'/.e'/.d'/.c'/.b/ | %182
 .e'.d'/.c'/.b/.a/ | .e'.d'/.c'/.b/.a/ | [gg']2{gabc'd'e'f'} z | .g'/.f'/.e'/.d'/.c'/.b/ | %186
 .e'.d'/.c'/.b/.a/ | .e'.d'/.c'/.b/.a/ | .d'/.c'/.b/.a/.g | .g'/.f'/.e'/.d'/.c'/.b/ | %190
 .e'.d'/.c'/.b/.a/ | .e'.d'/.c'/.b/.a/ | g !>![dfad']2 | [gb] !>![dfad']2 | [gb] !>![dfad']2 | %195
 [gb] !>![dfad']2!8va)! | [Bdg]/G/[Bdg]/G/[Bdg]/G/ | [Bdg]/G/[Bdg]/G/[Bdg]/G/ | %198
 [Bdg]/G/[Bdg]/G/[Bdg]/G/ | [Bdg]/G/[Bdg]/G/[Bdg]/G/ | !arpeggio![GBdg] z !fermata!z |] %201
V:9
 z4!ff! !>![C,,C,]2 !>![C,,C,]2 | !>![C,,C,]2 !>![C,,C,]2 !>![C,,C,]2 !>![C,,C,]2 | %2
 (3.[C,,C,]B,,.A,, (3.G,,.A,,.B,, (3.C,.B,,.A,, (3.G,,.A,,.B,, | %3
 (3.C,.B,,.A,, (3.G,,.A,,.B,, (3.C,.B,,.A,, (3.G,,.A,,.B,, | C,2 z2 !>![C,,C,]2 !>![C,,C,]2 | %5
 (3.[C,,C,].B,,.A,, G,,z/^G,,/ (3.A,,.=G,,.F,, E,,z/F,,/ | (G,,2 E,,) z !>![C,,C,]2 !>![C,,C,]2 | %7
 (3.[C,,C,].B,,.A,, G,,z/^G,,/ (3.A,,.=G,,.F,, E,,z/F,,/ | (G,,2 E,,) z !>![C,,C,]2 !>![_E,,_E,]2 | %9
 (3.[D,,D,].C,._B,, A,,z/C,/ (3.B,,A,,.G,, ^F,,z/G,,/ | (A,,2 D,,) z !>![C,,C,]2 !>![_E,,_E,]2 | %11
 (3.[D,,D,].C,._B,, A,,z/C,/ (3.B,,.A,,.G,, ^F,,z/G,,/ | (A,,2 D,,) z !>!D2 !>!D2 | %13
!p! (3[D,A,C][D,A,C][D,A,C] [D,A,C] z !>!D2 D>D | %14
 (3[D,G,_B,][D,G,B,][D,G,B,] [D,G,B,] z !>!D2 !>!D2 | %15
 (3[D,^F,A,][D,F,A,][D,F,A,] [D,F,A,] z [D,G,_B,] z [D,A,C] z | %16
!f!!ped! [D,^F,A,]2 [D,F,A,]2 [D,F,A,]2 [D,G,_B,]2!ped-up! | %17
!ped! [D,A,C]2 [D,_B,D]2{/D,} [C_E]2{/D,} [^C=E]2!ped-up! | %18
!ped!{/D,} [D^F]2 [D,^F,A,]2 [D,F,A,]2 [D,G,_B,]2!ped-up! | %19
!ped! [D,A,C]2 [D,_B,D]2{/D,} [C_E]2{/D,} [^C=E]2!ped-up! | %20
!ped!{/D,} [D^F]2 (3[D,,D,][D,,D,][D,,D,] [D,,D,]2 [D,,D,]2!ped-up! | %21
!ped! [D,,D,]2 (3[D,,D,][D,,D,][D,,D,] [D,,D,]2 [D,,D,]2!ped-up! | [D,,D,]2 z2 z4 | z8 || %24
[K:Bb][M:3/8]!p! .G,[B,DG].[B,DG] | .G,.[B,DG].[B,DG] | .G,.[B,DG].[B,DG] |!p! .G,.[B,DG][B,DG] | %28
 .G,.[B,DG].[B,DG] | G,[B,DG][B,DG] | G,[B,DG][B,DG] | D,[A,D^F][A,DF] | G,[B,DG][B,DG] | %33
 D,[A,D^F][A,DF] | G,[B,DG][B,DG] | G,[B,DG][B,DG] | G,[B,DG][B,DG] | G,[B,DG][B,DG] | %38
 G,[B,DG][B,DG] | D,[A,D^F][A,DF] | G,[B,DG][B,DG] | D,[A,D^F][A,DF] | G,[B,DG][B,DG] | %43
 B,,[B,DF][B,DF] | B,,[B,DF][B,DF] | F,[A,CF][A,CF] | F,[A,CF][A,CF] | [B,,B,][B,DF][B,DF] | %48
 [B,,B,][B,DF][B,DF] | F,[A,CF][A,CF] | G,[B,DG][B,DG] | G,[B,DG][B,DG] | G,[B,DG][B,DG] | %53
 G,[B,DG][B,DG] | G,[B,DG][B,DG] | D,[A,D^F][A,DF] | G,[B,DG][B,DG] | D,[A,D^F][A,DF] | %58
 G,[B,DG][B,DG] | G,[B,DG][B,DG] |!pp! G,,[D,G,=B,][D,G,B,] | G,,[D,G,=B,][D,G,B,] | %62
 G,,[D,G,=B,][D,G,B,] | G,,[D,G,=B,][D,G,B,] | [D,,D,][D,^F,A,][D,F,A,] | %65
 [D,,D,][D,^F,A,][D,F,A,] | [D,,D,][D,^F,A,][D,F,A,] | [D,,D,][D,^F,A,][D,F,A,] | %68
 G,,[D,G,=B,][D,G,B,] | G,,[D,G,=B,][D,G,B,] | G,,[D,G,=B,][D,G,B,] | G,,[D,G,=B,][D,G,B,] | %72
 [D,,D,][D,^F,A,][D,F,A,] | [D,,D,][D,^F,A,][D,F,A,] | [D,,D,][D,^F,A,][D,F,A,] | %75
 [D,,D,][D,^F,A,][D,F,A,] | G,,[_B,D][B,D] | G,[_B,DG][B,DG] | G,[B,DG][B,DG] | G,[B,DG][B,DG] | %80
 G,[B,DG][B,DG] | D,[A,D^F][A,DF] | G,[B,DG][B,DG] | D,[A,D^F][A,DF] | [G,B,DG]2 z | %85
 !>![G,,D,G,][B,D][G,B,] | !>![D,,A,,D,][A,C][^F,A,] | !>![D,,A,,D,][A,C][^F,A,] | %88
 !>![G,,D,G,][B,D][G,B,] | !>![G,,D,G,][B,D][G,B,] | !>![D,,A,,D,][A,C][^F,A,] | %91
 !>![D,,A,,D,][A,C][^F,A,] | !>![G,,B,,D,G,]2 z |!f! !>![G,,D,G,][B,D][G,B,] | %94
 !>![D,,A,,D,][A,C][^F,A,] | !>![D,,A,,D,][A,C][^F,A,] | !>![G,,D,G,][B,D][G,B,] | %97
 !>![G,,D,G,][B,D][G,B,] | !>![D,,A,,D,][A,C][^F,A,] | !>![D,,A,,D,][A,C][^F,A,] | %100
 [G,,B,,D,G,][G,B,D][G,B,D] |!pp! [G,,G,][G,B,D][G,B,D] | G,,[D,G,=B,][D,G,B,] | %103
 G,,[D,G,=B,][D,G,B,] | G,,[D,G,=B,][D,G,B,] | G,,[D,G,=B,][D,G,B,] | [D,,D,][D,^F,A,][D,F,A,] | %107
 [D,,D,][D,^F,A,][D,F,A,] | [D,,D,][D,^F,A,][D,F,A,] | [D,,D,][D,^F,A,][D,F,A,] | %110
 G,,[D,G,=B,][D,G,B,] | G,,[D,G,=B,][D,G,B,] | G,,[D,G,=B,][D,G,B,] | G,,[D,G,=B,][D,G,B,] | %114
 [D,,D,][D,^F,A,][D,F,A,] | [D,,D,][D,^F,A,][D,F,A,] | [D,,D,][D,^F,A,][D,F,A,] | %117
 [D,,D,][D,^F,A,][D,F,A,] | G,,[_B,D][B,D] | G,[B,DG][B,DG] | G,[B,DG][B,DG] | G,[B,DG][B,DG] | %122
 G,[B,DG][B,DG] | C,[A,D^F][A,DF] | G,[B,DG][B,DG] | D,[A,D^F][A,DF] | G,[B,DG][B,DG] | %127
 G,[B,DG][B,DG] | G,[B,DG][B,DG] | G,[B,DG][B,DG] | G,[B,DG][B,DG] | D,[A,D^F][A,DF] | %132
 G,[B,DG][B,DG] | D,[A,D^F][A,DF] | G,[B,DG][B,DG] | [B,,B,][B,DF][B,DF] | [B,,B,][B,DF][B,DF] | %137
 F,[A,CF][A,CF] | F,[A,C][A,C] | [B,,B,][B,DF][B,DF] | [B,,B,][B,DF][B,DF] | F,[A,CF][A,CF] | %142
 F,[A,CF][A,CF] | G,[B,DG][B,DG] | G,[B,DG][B,DG] | G,[B,DG][B,DG] | G,[B,DG][B,DG] | %147
 D,[A,D^F][A,DF] | G,[B,DG][B,DG] | D,[A,D^F][A,DF] ||[K:G] G,[B,DG][B,DG] | G,[B,DG][B,DG] | %152
!ppp! .G,,.[D,G,B,].[D,G,B,] | .G,,.[D,G,B,].[D,G,B,] | .G,,.[D,G,B,].[D,G,B,] | %155
 .G,,.[D,G,B,].[D,G,B,] | .[D,,D,].[D,F,A,].[D,F,A,] | .[D,,D,].[D,F,A,].[D,F,A,] | %158
 .[D,,D,].[D,F,A,].[D,F,A,] | .[D,,D,].[D,F,A,].[D,F,A,] | .G,,.[D,G,B,].[D,G,B,] | %161
"^cresc." .G,,.[D,G,B,].[D,G,B,] | .G,,.[D,G,B,].[D,G,B,] | .G,,.[D,G,B,].[D,G,B,] | %164
 .[D,,D,].[D,F,A,].[D,F,A,] | .[D,,D,].[D,F,A,].[D,F,A,] | .[D,,D,].[D,F,A,].[D,F,A,] | %167
 [D,,D,].[D,F,A,].[D,F,A,] |"^cresc." [G,,G,][D,G,B,][D,G,B,] | [G,,G,][D,G,B,][D,G,B,] | %170
 [G,,G,][D,G,B,][D,G,B,] | [G,,G,][D,G,B,][D,G,B,] | [D,,D,][D,F,A,][D,F,A,] | %173
 [D,,D,][D,F,A,][D,F,A,] | [D,,D,][D,F,A,][D,F,A,] | [D,,D,][D,F,A,][D,F,A,] | [G,,B,,D,G,]2 z | %177
!ff! !>![G,,D,G,][B,D][G,B,] | !>![A,,D,][F,A,C][D,F,A,] | !>![A,,D,][F,A,C][D,F,A,] | %180
 !>![G,,B,,D,G,][G,,B,,D,G,] z | !>![G,,D,G,][B,D][G,B,] | !>![D,,A,,D,][F,A,C][D,F,A,] | %183
 !>![D,,A,,D,][F,A,C][D,F,A,] | [G,,B,,D,G,]2 z | !>![G,,D,G,][B,D][G,B,] | %186
 !>![A,,D,][F,A,C][D,F,A,] | !>![A,,D,][F,A,C][D,F,A,] | !>![G,,B,,D,G,][G,,B,,D,G,] z | %189
 !>![G,,D,G,][B,D][G,B,] | !>![D,,A,,D,][F,A,C][D,F,A,] | !>![D,,A,,D,][F,A,C][D,F,A,] | %192
 [G,,B,,D,G,] !>![D,,A,,D,]2 | [G,,B,,D,] !>![D,,A,,D,]2 | [G,,B,,D,] !>![D,,A,,D,]2 | %195
 [G,,B,,D,] !>![D,,A,,D,]2 | [G,,B,,D,G,][G,,B,,D,G,][G,,B,,D,G,] | %197
 [G,,B,,D,G,][G,,B,,D,G,][G,,B,,D,G,] | [G,,B,,D,G,][G,,B,,D,G,][G,,B,,D,G,] | %199
 [G,,B,,D,G,][G,,B,,D,G,][G,,B,,D,G,] | !arpeggio![G,,B,,D,G,] z !fermata!z |] %201

